!!!COM: Bach, Johann Sebastian
!!!OPR: Joh. Seb. Bachs vierstimmige Choralges‰nge
!!!XEN: Four-part Chorales
!!!OTL: 51. Eins ist not, ach Herr, dies Eine
!!!SCT: BWV 304
!!!SCA: Thematisch-systematisches Verzeichnis der musikalischen Werke Johann Sebastian Bach: Bach-Werke-Verzeichnis (Schmieder)
!!!YOR: Bach Gesellschaft Edition xxxix
!!!ENC: Steven Rasmussen
!!!CDT: 1685/3//-1750/7/28/
!!!OCY: Deutschland
!!!YEC: Copyright (c) 1994, 2000 Center for Computer Assisted Research in the Humanities
!!!YEM: Rights to all derivative editions reserved
!!!YEN: United States of America
**kern	**silbe	**kern	**silbe	**kern	**silbe	**kern	**silbe
*I:[SOPRANO]	*I:[SOPRANO]	*I:[ALTO]	*I:[ALTO]	*I:[TENORE]	*I:[TENORE]	*I:[BASSO]	*I:[BASSO]
*clefG2	*	*clefG2	*	*clefGv2	*	*clefF4	*
*k[f#c#]	*	*k[f#c#]	*	*k[f#c#]	*	*k[f#c#]	*
*D:	*	*D:	*	*D:	*	*D:	*
*M4/4	*	*M4/4	*	*M4/4	*	*M4/4	*
=1-	=1-	=1-	=1-	=1-	=1-	=1-	=1-
4a	Eins	4f#	.	4d	.	4D	.
8gL	ist	4d	.	4A	.	4D	.
8f#J	.	.	.	.	.	.	.
4b	not,	4d	.	4B	.	8GL	.
.	.	.	.	.	.	8F#J	.
4b	ach	8gL	.	8eL	.	4E	.
.	.	8f#J	.	8dJ	.	.	.
=2	=2	=2	=2	=2	=2	=2	=2
4cc#	Herr,	4e	.	8c#L	.	8AL	.
.	.	.	.	8BJ	.	8GJ	.
4cc#	dies	8aL	.	4A	.	8F#L	.
.	.	8gJ	.	.	.	8EJ	.
4dd	Ei-	4f#	.	4A	.	4D	.
4dd;	-ne	4f#;	.	4A;	.	4D;	.
=3	=3	=3	=3	=3	=3	=3	=3
4.b	leh-	4d	.	8GL	.	8GL	.
.	.	.	.	8AJ	.	8F#J	.
.	.	8gL	.	4B	.	4E	.
8a	-re	8f#J	.	.	.	.	.
4g	mich	4e	.	4B	.	8EL	.
.	.	.	.	.	.	8DJ	.
4a	er-	4e	.	4A	.	4C#	.
=4	=4	=4	=4	=4	=4	=4	=4
8gL	-ken-	4d	.	4A	.	4D;	.
8f#J	.	.	.	.	.	.	.
8eL	-nen	4c#	.	8AL	.	4AA	.
8f#J	.	.	.	8GJ	.	.	.
2d;	doch:	2A;	.	2F#;	.	2D	.
=5	=5	=5	=5	=5	=5	=5	=5
4a	al-	4e	.	4A	.	4C#	.
8gL	-les	4d	.	4A	.	4D	.
8f#J	.	.	.	.	.	.	.
4b	An-	4f#	.	8AL	.	4D#	.
.	.	.	.	8F#J	.	.	.
4b	-dre,	8eL	.	8G	.	4E	.
.	.	8dJ	.	[8B	wie's	.	.
=6	=6	=6	=6	=6	=6	=6	=6
4cc#	wie's	4c#	.	8BL]	.	4E#	.
.	.	.	.	8G#J	.	.	.
4cc#	auch	4f#	.	4A#	auch	4F#	.
4dd	schei-	4f#	.	4B	.	4BB	.
4dd;	-ne,	4f#;	.	4B;	.	4BB;	.
=7	=7	=7	=7	=7	=7	=7	=7
4.b	ist	8gL	.	4d	.	4GG	.
.	.	8f#J	.	.	.	.	.
.	.	4e	.	4c#	.	4AA	.
8a	ja	.	.	.	.	.	.
4g	nur	4d	.	8BL	.	4BB	.
.	.	.	.	8GJ	.	.	.
4a	ein	4e	.	8EL	.	4C#	.
.	.	.	.	8AJ	.	.	.
=8	=8	=8	=8	=8	=8	=8	=8
8gL	schwe-	8eL	.	4A	.	4D	.
8f#J	.	8dJ	.	.	.	.	.
8eL	-res	8dL	.	4A	.	4AA	.
8f#J	.	8c#J	.	.	.	.	.
2d;	Joch,	2A;	.	2F#;	.	2D;	.
=9||	=9||	=9||	=9||	=9||	=9||	=9||	=9||
*M3/4	*	*M3/4	*	*M3/4	*	*M3/4	*
8dL	da-	4A	.	8F#L	.	4D	.
8eJ	.	.	.	8GJ	.	.	.
=10	=10	=10	=10	=10	=10	=10	=10
4f#	-run-	4d	.	4A	.	8DL	.
.	.	.	.	.	.	8C#J	.
4f#	-ter	4d	.	4A	.	8DL	.
.	.	.	.	.	.	8EJ	.
4f#	das	4d	.	8AL	.	8F#L	.
.	.	.	.	8BJ	.	8GJ	.
=11	=11	=11	=11	=11	=11	=11	=11
4e	Her-	8c#L	.	8c#L	.	4A	.
.	.	8BJ	.	8dJ	.	.	.
4e	-ze	8c#L	.	8eL	.	4AA	.
.	.	8dJ	.	8dJ	.	.	.
8eL	sich	4e	.	4c#	.	4A	.
8f#J	.	.	.	.	.	.	.
=12	=12	=12	=12	=12	=12	=12	=12
4g	na-	4e	.	4B	.	8EL	.
.	.	.	.	.	.	8D#J	.
4g	-get	4e	.	4B	.	8EL	.
.	.	.	.	.	.	8F#J	.
8gL	und	4e	.	8BL	.	8GL	.
8f#J	.	.	.	8c#J	.	8AJ	.
=13	=13	=13	=13	=13	=13	=13	=13
4f#	pla-	8dL	.	8dL	.	4B	.
.	.	8c#J	.	8eJ	.	.	.
4f#	-get,	8dL	.	8f#L	.	4BB	.
.	.	8eJ	.	8eJ	.	.	.
4f#	und	4f#	.	8dL	.	8BL	.
.	.	.	.	8c#J	.	8AJ	.
=14	=14	=14	=14	=14	=14	=14	=14
4.b	den-	4.g	.	8BL	.	8GL	.
.	.	.	.	8AJ	.	8F#J	.
.	.	.	.	8GL	.	4E	.
8a	-noch	8f#	.	8AJ	.	.	.
4g	kein	4e	.	4B	.	8EL	.
.	.	.	.	.	.	8DJ	.
=15	=15	=15	=15	=15	=15	=15	=15
4.a	wah-	8eL	.	4A	.	8C#L	.
.	.	8dJ	.	.	.	8BBJ	.
.	.	4c#	.	4A	.	4AA	.
8g	-res	.	.	.	.	.	.
4f#	Ver-	4d	.	4A	.	8DL	.
.	.	.	.	.	.	8C#J	.
=16	=16	=16	=16	=16	=16	=16	=16
4g	-gn√º-	4d	.	8GL	.	8BBL	.
.	.	.	.	8AJ	.	8AAJ	.
4f#	-gen	4d	.	4B	.	4GG	.
4e	er-	4c#	.	4E	.	4AA	.
=17	=17	=17	=17	=17	=17	=17	=17
4d	-ja-	4A	.	4F#	.	4D	.
4d;	-get;	4A;	.	4F#;	.	4D;	.
8dL	er-	4A	.	4F#	.	8DL	.
8eJ	.	.	.	.	.	8C#J	.
=18	=18	=18	=18	=18	=18	=18	=18
4f#	-lang'	4d	.	4B	.	4BB	.
4f#	ich	4d	.	4B	.	8BL	.
.	.	.	.	.	.	8AJ	.
4f#	dies	4d	.	4A	.	8GL	.
.	.	.	.	.	.	8F#J	.
=19	=19	=19	=19	=19	=19	=19	=19
4e	Ei-	4d	.	4B	.	4G#	.
4e	-ne,	8c#L	.	8AL	.	4E	.
.	.	8BJ	.	8G#J	.	.	.
8eL	das	8c#L	.	4A	.	4A	.
8f#J	.	8dJ	.	.	.	.	.
=20	=20	=20	=20	=20	=20	=20	=20
4g	Al-	4e	.	4A	.	4C#	.
4g	-les	4e	.	4B	.	8DL	.
.	.	.	.	.	.	8C#J	.
8gL	er-	4e	.	4c#	.	8BBL	.
8f#J	.	.	.	.	.	8AAJ	.
=21	=21	=21	=21	=21	=21	=21	=21
2f#	-setzt,	(4e	.	2A	.	2D	.
.	.	4d)	.	.	.	.	.
4f#	so	4r	.	4A	so	4r	.
=22	=22	=22	=22	=22	=22	=22	=22
4.b	werd'	4d	so	8dL	werd'	4BB	so
.	.	.	.	8c#J	.	.	.
.	.	8gL	werd'	4.B	ich	4E	werd'
8a	ich	8f#J	.	.	.	.	.
4g	mit	[4e	ich	.	.	8EL	ich
.	.	.	.	8B	mit	8DJ	mit
=23	=23	=23	=23	=23	=23	=23	=23
4.a	Ei-	8e]	.	4.A	Ei-	8C#L	Ei-
.	.	8g	mit	.	.	8AAJ	.
.	.	8f#L	Ei-	.	.	4.D	-nem
8g	-nem	8eJ	.	8c#	-nem	.	.
4f#	in	8d	-nem	4d	in	.	.
.	.	8A	in	.	.	8C#	in
=24	=24	=24	=24	=24	=24	=24	=24
4g	Al-	4.d	.	4D	.	4BB	.
4f#	-lem	.	.	4A	.	8AAL	.
.	.	8e	.	.	.	8GGJ	.
4e	er-	4c#	.	8AL	.	4AA	.
.	.	.	.	8GJ	.	.	.
=25	=25	=25	=25	=25	=25	=25	=25
2.d;	-g√∂tzt.	2.A;	.	2.F#;	.	2.D;	.
==|!	==|!	==|!	==|!	==|!	==|!	==|!	==|!
*-	*-	*-	*-	*-	*-	*-	*-
!!!RWG: Key is interpreted using the Humdrum key tool.
!!!END: 1994/05/25
!!!EMD: Converted from MuseData to Humdrum Dec 19, 2000, by Andreas Kornstaedt using muse2kern.
!!!EED: Craig Stuart Sapp
!!!EEV: 2024/03/31
!!!ONB: Some non-unicode characters
